X:1
T:S.K.J.
T:S.K.J.
T:Milt Jackson
C:Milt Jackson
Z:All Rights Reserved
L:1/8
M:4/4
K:Db
V:1 treble 
%%MIDI program 0
V:1
 (3z d=B (3AGD (3=EGD- D2 | (3z d=B (3AGD (3=EGD- D2 | (3z d=B (3AGD (3=EGD- DA, | =B,3 D- D4 | %4
 (3z d=B (3AGD (3=EGD- D2 | (3z d=B (3AGD (3=EGD- D2 | (3z d=B (3AGD (3=EGD- DA, | =B,3 D- D4 | %8
 (3z d=B (3AGD (3=EGD- D2 | (3z d=B (3AGD (3=EGD- D2 | (3z d=B (3AGD (3=EGD- DA, | =B,3 D- D4 |] %12

